!!!!SEGMENT: pl-kk--kk-i-389--003-003_anonim--missa-no-3-gloria.krn
!!!cenid: 17xx:2470
!!!COM: Anonim
!!!COM-rismID: pe30004985
!!!CDT:
!!!CNT:
!!!OPR: [Missa] No. 3.
!!!OTL: Gloria
!!!OMV: 003
!!!PDT:
!!!AGN: Sacred; Mass
!!!YEC: Copyright 2022 Narodowy Instytut Fryderyka Chopina (https://polishscores.org)
!!!YEM: License CC-BY-4.0 (https://creativecommons.org/licenses/by/4.0)
!!!SMS-siglum: PL-Kk
!!!SMS-shelfmark: Kk.I.389
!!!SMS-variant:
!!!SMS-altvar:
!!!SMS-shelfwork: 003-003 M
!!!NIFC-rismSourceID: 1001146182
!!!NIFC-rismChildID: 1001146400
!!!NIFC-islandoraID: pl-kk:6976
!!!URL-pdf-islandora: https://repozytorium.nifc.pl/islandora/object/pl-kk%3A6976/datastream/PDF/view
!!!URL-scan: https://polish.musicsources.pl/pl/lokalizacje/galeria/rekopisy/5999/1 @EN{Scan on Polish Music Sources Website} @PL{Skany w portalu Dziedzictwo Muzyki Polskiej w otwartym dostępie}
!!!IIIF:
!!!ONB-nifc: UWAGA: S – skan 6-7, A – 25-26 , T – 44-45 , B – 63-64 . Części Mszy: Rorate, Kyrie, Gloria, Graduale, Sanctus, Benedictus, Agnus, Dona
!!!AIN: 1 alto 1 bass 1 soprn 1 tenor
!!!key: F
**kern	**text	**kern	**text	**kern	**text	**kern	**text
*part4	*part4	*part3	*part3	*part2	*part2	*part1	*part1
*staff4	*staff4	*staff3	*staff3	*staff2	*staff2	*staff1	*staff1
*I"Basso.	*	*I"Tenore.	*	*I"Alto.	*	*I"Soprano.	*
*I'[B]	*	*I'[T]	*	*I'[A]	*	*I'[S]	*
*ICvox	*	*ICvox	*	*ICvox	*	*ICvox	*
*Ibass	*	*Itenor	*	*Ialto	*	*Isoprn	*
*clefF4	*	*clefC4	*	*clefC3	*	*clefC1	*
*k[b-]	*	*k[b-]	*	*k[b-]	*	*k[b-]	*
*F:	*	*F:	*	*F:	*	*F:	*
*M2/2	*	*M2/2	*	*M2/2	*	*M2/2	*
*met(C.|)	*	*met(C.|)	*	*met(C.|)	*	*met(C.|)	*
=1	=1	=1	=1	=1	=1	=1	=1
!LO:TX:t=P:problem:all\right	!	!	!	!	!	!	!
*	*	*2\right	*	*2\right	*	*	*
4F\	Et	2.A\	Et	2.c\	Et	4a\	Et
4A\	.	.	.	.	.	4cc\	in
4c\	.	.	.	.	.	4a\	ter-
4A\	in	4A\	in	4c\	in	4cc\	-ra
=2	=2	=2	=2	=2	=2	=2	=2
*2\right	*	*	*	*	*	*	*
2.F\	ter-	2.B-\	ter-	2.d\	ter-	2.f/	pax
4F\	-ra	4B-\	-ra	4d\	-rapax	4f/	ho-
=3	=3	=3	=3	=3	=3	=3	=3
*	*	*	*	*	*	*2\right	*
2C/	pax	2.G/	pax	2e\	.	2.b-\	-mi-
4E/	.	.	.	8e\L	.	.	.
.	.	.	.	8b-\	.	.	.
4C/	ho-	8B-/L	ho-	8g\	ho-	4cc\	-ni-
.	.	8G/J	.	8e\J	.	.	.
=4	=4	=4	=4	=4	=4	=4	=4
4.F\	-mi-	4.A/	-mi-	4.f\	-mi-	4.cc\	-bus
8F\	-ni-	8A/	-ni-	8f\	-ni-	16cc\	bo-
.	.	.	.	.	.	16cc\	-ne
2F\	-bus,	2A\	-bus	2f\	-bus	[2cc\	bo-
=5	=5	=5	=5	=5	=5	=5	=5
4F\	bo-	4c\	bo-	4a\	bo-	4cc\]	.
8E\L	-ne	8B-\L	-ne	8g\L	-ne	4cc\	-ne
8F\J	.	8A\J	.	8f\J	.	.	.
4F\	vo-	4c\	vo-	4a\	vo-	4cc\	vo-
8E\L	-lun-	8B-\L	-lun-	8g\L	-lun-	4cc\	-lun-
8F\J	.	8A\J	.	8f\J	.	.	.
=6	=6	=6	=6	=6	=6	=6	=6
4c\	-ta-	4A/	-ta-	4f\	-ta-	4cc\	-ta-
4C/	-tis	4G/	-tis	4e\	-tis	4cc\	-tis
2r	.	4r	.	4r	.	2r	.
.	.	8G/L	Lau-	8e\L	lau-	.	.
.	.	8A/J	.	8f\J	.	.	.
!LO:LB:g=original	!	!	!	!LO:LB:g=original	!	!	!
=7	=7	=7	=7	=7	=7	=7	=7
!LO:TX:a:t=1.	!	!	!	!	!	!LO:TX:a:t=1.	!
1r	.	8B-\L	-da-	8g\L	-da-	1r	.
.	.	8A\	.	8f\	.	.	.
.	.	8G\	.	8e\	.	.	.
.	.	8A\J	.	8f\J	.	.	.
!	!	!LO:LB:g=original	!	!	!	!	!
.	.	8c\L	.	8a\L	.	.	.
.	.	8B-\	.	8g\	.	.	.
.	.	8A\	.	8f\	.	.	.
.	.	8G\J	-mus	8e\J	-mus	.	.
!	!	!	!	!	!	!LO:LB:g=original	!
=8	=8	=8	=8	=8	=8	=8	=8
8F\L	be-	2A\	te,	2f\	te,	8a\L	be-
8G\J	.	.	.	.	.	8b-\J	.
8F\L	-ne-	.	.	.	.	8a\L	-ne-
8G\J	.	.	.	.	.	8b-\J	.
8B-\L	-di-	2r	.	2r	.	8dd\L	-di-
8A\J	.	.	.	.	.	8cc\J	.
8G\	-ci-	.	.	.	.	8b-\	-ci-
8F\	-mus	.	.	.	.	8a\	-mus
=9	=9	=9	=9	=9	=9	=9	=9
4C/	te	8G\L	be-	8e\L	a-	4g\	te,
.	.	8A\J	.	8f\J	.	.	.
4r	.	8G\L	-ne-	8e\L	-do-	4r	.
.	.	8A\J	.	8f\J	.	.	.
2r	.	8B-\L	-di-	8g\L	-ra-	2r	.
.	.	8d\J	.	8b-\J	.	.	.
.	.	8c\L	-ci-	8a\L	-mus	.	.
.	.	8B-\J	.	8g\J	.	.	.
=10	=10	=10	=10	=10	=10	=10	=10
4r	.	4A\	-mus	4a\	te,	4r	.
4FF/	te	4f\	glo-	4a\	glo-	4cc\	glo-
4AA/	.	4f\	-ri-	4a\	-ri-	4cc\	-ri-
4C/	glo-	4f\	-fi-	4a\	-fi-	4cc\	-fi-
=11	=11	=11	=11	=11	=11	=11	=11
4F\	-ri-	4f\	-ca-	4a\	-ca-	[1cc	-ca-
4E\	.	8e\L	.	8g\L	.	.	.
.	.	8d\J	.	8b-\J	.	.	.
4F\	.	8c\L	.	8a\L	.	.	.
.	.	8B-\	.	8g\	.	.	.
4BB-/	-fi-	8A\	.	8f\	.	.	.
.	.	8G\J	.	8e\J	.	.	.
!	!	!	!	!LO:LB:g=original	!	!	!
=12	=12	=12	=12	=12	=12	=12	=12
2C/	-ca-	2A/	.	2f\	.	2cc\]	.
2C/	-mus	2G/	-mus	2e\	-mus	2cc\	-mus
=13	=13	=13	=13	=13	=13	=13	=13
2F\	te,	2A\	te,	2f\	te,	2cc\	te
2r	.	2r	.	2r	.	2r	.
!	!	!LO:LB:g=original	!	!	!	!	!
=14	=14	=14	=14	=14	=14	=14	=14
4.F\	gra-	4.c\	Gra-	4.a\	Gra-	4.a\	Gra-
8E\	-ti-	8B-\	-ti-	8g\	-ti-	8b-\	-ti-
2F\	-as	2A\	-as	2f\	-as	2cc\	-as
!LO:LB:g=original	!	!	!	!	!	!	!
=15	=15	=15	=15	=15	=15	=15	=15
8F\L	a-	8c\L	a-	8a\L	a-	2cc\	a-
8E\	.	8B-\	.	8g\	.	.	.
8E\	.	8B-\	.	8g\	.	.	.
8F\J	.	8A\J	.	8f\J	.	.	.
!	!	!	!	!	!	!LO:LB:g=original	!
8F\L	.	8c\L	.	8a\L	.	4cc\	-gi-
8E\J	.	8B-\J	.	8g\J	.	.	.
8E\	-gi-	8B-\	-gi-	8g\	-gi-	4cc\	-mus
8F\	-mus	8A\	-mus	8f\	-mus	.	.
=16	=16	=16	=16	=16	=16	=16	=16
4c\	ti-	4A\	ti-	4f\	ti-	4cc\	ti-
4C/	-bi	4G/	-bi	4e\	-bi	4cc\	-bi
4C/	pro-	4c\	pro-	4e\	pro-	4cc\	pro-
4C/	-pter	4d\	-pter	4f\	-pter	4g\	-pter
=17	=17	=17	=17	=17	=17	=17	=17
8B-\L	ma-	8e\L	ma-	8g\L	ma-	4cc\	ma-
8A\J	.	8d\J	.	8f\J	.	.	.
8G\L	-gnam	4e\	-gnam	4g\	-gnam	4cc\	-gnam
8F\J	.	.	.	.	.	.	.
4E\	glo-	8e\L	glo-	8g\L	glo-	4cc\	glo-
.	.	8g\J	.	8b-\J	.	.	.
8C/	-ri-	8f\	-ri-	8a\	-ri-	8cc\	-ri-
8C/	-am	8e\	-am	8g\	-am	8cc\	-am
!	!	!	!	!LO:LB:g=original	!	!	!
=18	=18	=18	=18	=18	=18	=18	=18
4F\	tu-	1c	tu-	2f\	tu-	1cc	tu-
8AA/L	.	.	.	.	.	.	.
8BB-/J	.	.	.	.	.	.	.
2C/	.	.	.	2e\	.	.	.
=19	=19	=19	=19	=19	=19	=19	=19
2F\	-am,	2c\	-am,	2f\	-am,	2cc\	-am,
2r	.	8c\L	Do-	8a\L	Do-	8f/L	Do-
.	.	8d\J	.	8b-\J	.	8e/J	.
.	.	8c\	-mi-	8a\	-mi-	8f/	-mi-
.	.	8B-\	-ne	8g\	-ne	8f/	-ne
!	!	!LO:LB:g=original	!	!	!	!	!
=20	=20	=20	=20	=20	=20	=20	=20
!LO:TX:a:t=3.	!	!	!	!	!	!	!
0r	.	8c\L	De-	8a\L	De-	4f/	De-
.	.	8B-\J	.	8g\J	.	.	.
.	.	4A\	-us,	4f\	-us	4cc\	-us
.	.	8B-\L	Rex	8g\L	Rex	4cc\	Rex
.	.	8c\J	.	8a\J	.	.	.
.	.	8B-\L	ce-	8g\L	ce-	4cc\	ce-
.	.	8A\J	.	8f\J	.	.	.
=21	=21	=21	=21	=21	=21	=21	=21
.	.	8B-\L	-les-	8g\L	-les-	4cc\	-les-
.	.	8A\J	.	8f\J	.	.	.
.	.	4G\	-tis	4e\	-tis	4cc\	-tis
.	.	8G\L	De-	4e\	De-	4cc\	De-
.	.	8A\J	.	.	.	.	.
.	.	4B-\	-us	8f\L	-us	4cc\	-us
.	.	.	.	8g\J	.	.	.
!	!	!	!	!	!	!LO:LB:g=original	!
=22	=22	=22	=22	=22	=22	=22	=22
1r	.	8A\L	Pa-	8f\L	Pa-	4f/	Pa-
.	.	8c\J	.	8a\J	.	.	.
.	.	8d\	-ter	8b-\	-ter	8b-\	-ter
.	.	8B-\	om-	8g\	om-	8dd\	om-
.	.	4A\	-ni-	4f\	-ni-	4cc\	-ni-
.	.	4G\	-po-	4e\	-po-	4cc\	-po-
!LO:LB:g=original	!	!	!	!LO:LB:g=original	!	!	!
=23	=23	=23	=23	=23	=23	=23	=23
2r	.	2A\	-tens,	2f\	-tens,	2cc\	-tens
8B-\L	Do-	2r	.	4f\	Do-	8dd\L	Do-
8d\J	.	.	.	.	.	8ff\J	.
8c\	-mi-	.	.	8f\	-mi-	8ee-X\	-mi-
8B-\	-ne	.	.	8f\	-ne	8dd\	-ne
=24	=24	=24	=24	=24	=24	=24	=24
!	!	!LO:TX:a:t=2	!	!	!	!	!
4A\	Fi-	0r	.	4f\	Fi-	4cc\	fi-
4A\	-li	.	.	4f\	-li	4cc\	-li
8A\L	u-	.	.	4f\	u-	8cc\L	u-
8B-\J	.	.	.	.	.	8dd\	.
8c\L	-ni	.	.	4f\	-ni	8ee-X\	.
8A\J	.	.	.	.	.	8cc\J	-ni
=25	=25	=25	=25	=25	=25	=25	=25
8B-\L	ge-	.	.	4.f\	ge-	8dd\L	ge-
8c\	.	.	.	.	.	8ee-X\	.
8B-\	.	.	.	.	.	8dd\	.
8F\J	-ni-	.	.	8e-X\	-ni-	8ee-\J	-ni-
4BB-/	-te	.	.	4d\	-te	4ff\	-te
4r	.	.	.	4r	.	4r	.
=26	=26	=26	=26	=26	=26	=26	=26
2E-X\	Je-	2A\	Je-	2g\	Je-	2cc\	Je-
2D\	-su	2B-\	-su	2f\	-su	2b-\	-su
=27	=27	=27	=27	=27	=27	=27	=27
8D\L	Chri-	8d\L	Chri-	8f\L	Chri-	1f	Chri-
8E\J	.	8c\J	.	8e\J	.	.	.
2F\	.	2B-\	.	2d\	.	.	.
4FF/	.	4A\	.	4c\	.	.	.
!	!	!LO:LB:g=original	!	!	!	!LO:LB:g=original	!
=28	=28	=28	=28	=28	=28	=28	=28
2BB-/	-ste	2B-\	-ste,	2d\	-ste,	2f/	-ste,
4BBn/	Do-	4G/	Do-	4d\	Do-	4f/	Do-
8BB/	-mi-	8G/	-mi-	8d\	-mi-	8f/	-mi-
8BB/	-ne	8G/	-ne	8d\	-ne	8f/	-ne
!LO:LB:g=original	!	!	!	!	!	!	!
=29	=29	=29	=29	=29	=29	=29	=29
4C/	De-	4G/	De-	4e-X\	De-	4e-X/	De-
4C/	-us	4G/	-us	4e-\	-us	4e-/	-us
!	!	!	!	!LO:LB:g=original	!	!	!
4C#X/	Ag-	4A/	Ag-	4en\	a-	4g/	Ag-
4C#/	-nus	4A/	-nus	4e\	-gnus	4g/	-nus
=30	=30	=30	=30	=30	=30	=30	=30
4D\	De-	4A/	De-	4f\	De-	4f/	De-
4D\	-i	4A/	-i	4f\	-i	4f/	-i
4F\	Fi-	4d\	Fi-	4a\	Fi-	4f/	Fi-
8E\	-li-	8c#X\	-li-	8g\	-li-	8g\	-li-
8D\	-us	8d\	-us	8f\	-us	8a\	-us
=31	=31	=31	=31	=31	=31	=31	=31
2A\	Pa-	2d\	Pa-	2f\	Pa-	1a	Pa-
2AA/	.	2c#X\	.	2e\	.	.	.
=32	=32	=32	=32	=32	=32	=32	=32
2D\	-tris	2d\	-tris,	2f\	-tris,	2a\	-tris,
4r	.	2r	.	2r	.	2r	.
4A\	qui	.	.	.	.	.	.
=33	=33	=33	=33	=33	=33	=33	=33
4d\	tol-	2r	.	2r	.	2r	.
4A\	.	.	.	.	.	.	.
8G\L	-lis	4r	.	4r	.	4r	.
8F\J	.	.	.	.	.	.	.
8E\L	pec-	4d\	pec-	4f\	pec-	4a\	pec-
8D\J	.	.	.	.	.	.	.
=34	=34	=34	=34	=34	=34	=34	=34
4C#X/	-ca-	4e\	-ca-	4g\	-ca-	4b-\	-ca-
4D/	-ta	4d\	-ta	4f\	-ta	4a\	-ta
4r	.	4r	.	4r	.	4r	.
4D/	pec-	4d\	pec-	4f\	pec-	4a\	pec-
!	!	!	!	!	!	!LO:LB:g=original	!
=35	=35	=35	=35	=35	=35	=35	=35
4B-\	-ca-	4d\	-ca-	4f\	-ca-	4g\	-ca-
4B-\	-ta	4d\	-ta	4f\	-ta	4g\	-ta
!	!	!LO:LB:g=original	!	!	!	!	!
2G#X\	mun-	2d\	mun-	2f\	mun-	2bn\	mun-
!LO:LB:g=original	!	!	!	!	!	!	!
=36	=36	=36	=36	=36	=36	=36	=36
2A\	-di	2c#X\	-di	2e\	-di	2a\	-di
2r	.	2r	.	2r	.	2r	.
!	!	!	!	!LO:LB:g=original	!	!	!
=37	=37	=37	=37	=37	=37	=37	=37
2A\	mi-	2c#X\	mi-	2a\	mi-	2ee\	mi-
2B-X\	-se-	2d\	-se-	2g\	-se-	2dd\	-se-
=38	=38	=38	=38	=38	=38	=38	=38
2c#X\	-re-	2e\	-re-	2g\	-re-	2a\	-re-
2d\	-re	2d\	-re	2f\	-re	2a\	-re
=39	=39	=39	=39	=39	=39	=39	=39
4B-\	no-	2.d\	no-	4g\	no-	2b-\	no-
4G\	.	.	.	4b-\	.	.	.
4A\	.	.	.	4a\	.	2a\	.
4AA/	.	4e\	.	4g\	.	.	.
=40	=40	=40	=40	=40	=40	=40	=40
2D\	-bis	2d\	-bis,	2f\	-bis,	2a\	-bis
4r	.	2r	.	2r	.	2r	.
4A\	qui	.	.	.	.	.	.
=41	=41	=41	=41	=41	=41	=41	=41
4d\	tol-	2r	.	2r	.	2r	.
4A\	.	.	.	.	.	.	.
8G\L	-lis	4r	.	4r	.	4r	.
8F\J	.	.	.	.	.	.	.
8E\L	pec-	4d\	pec-	4f\	pec-	4a\	pec-
8D\J	.	.	.	.	.	.	.
=42	=42	=42	=42	=42	=42	=42	=42
4C#X\	-ca-	4e\	-ca-	4g\	-ca-	4b-\	-ca-
4D\	-ta	4d\	-ta	4f\	-ta	4a\	-ta
4r	.	4r	.	4r	.	4r	.
4D\	pec-	4d\	pec-	4f\	pec-	4a\	pec-
!	!	!	!	!	!	!LO:LB:g=original	!
=43	=43	=43	=43	=43	=43	=43	=43
4E\	-ca-	4cn\	-ca-	4g\	-ca-	4b-\	-ca-
4F\	-ta	4c\	-ta	4a\	-ta	4a\	-ta
4G\	mun-	2e\	mun-	2b-\	mun-	2cc\	mun-
4C/	.	.	.	.	.	.	.
=44	=44	=44	=44	=44	=44	=44	=44
2F\	-di.	2cn\	-di.	2a\	-di	2cc\	-di
2r	.	2r	.	2r	.	2r	.
!LO:LB:g=original	!	!LO:LB:g=original	!	!LO:LB:g=original	!	!	!
=45||	=45||	=45||	=45||	=45||	=45||	=45||	=45||
*	*	*	*	*clefC3	*	*	*
*	*	*	*	*k[b-]	*	*	*
*M3/2	*	*M3/2	*	*M3/2	*	*M3/2	*
4F\	Su-	4c\	Su-	4f\	Su-	4a-X\	Su-
4G\	.	4d-X\	.	4e\	.	4b-\	.
4F\	.	4c\	.	4f\	.	4a-\	.
4G\	-sci-	4d-\	-sci-	4e\	-sci-	4b-\	-sci-
2F\	-pe	2c\	-pe	2f\	-pe	2a-\	-pe
=46	=46	=46	=46	=46	=46	=46	=46
4En\	su-	4B-X\	su-	4e\	Su-	4g\	su-
4F\	.	4c\	.	4f\	.	4a-X\	.
4E\	.	4B-\	.	4e\	.	4g\	.
4F\	-sci-	4c\	-sci-	4f\	-sci-	4a-\	-sci-
2E\	-pe	2B-\	-pe	2e\	-pe	2g\	-pe
=47	=47	=47	=47	=47	=47	=47	=47
4F\	de-	4c\	de-	4f\	de-	4a-X\	de-
4F\	-pre-	4c\	-pre-	4f\	-pre-	4a-\	-pre-
4F\	-ca-	2.c\	-ca-	2f\	-ca-	4a-\	-ca-
4A-X\	.	.	.	.	.	4cc\	.
4G\	.	.	.	4e\	.	4b-\	.
4F\	-ti-	4c\	-ti-	4f\	-ti-	4a-\	-ti-
=48	=48	=48	=48	=48	=48	=48	=48
4E\	-o-	1c	-o-	1e	-o-	4g/	-o-
4C\	.	.	.	.	.	4e/	.
4E\	.	.	.	.	.	4g\	.
4G\	.	.	.	.	.	4cc\	.
4c\	.	2c\	-nem	2e\	-nem	2g\	-nem
4B-X\	-nem	.	.	.	.	.	.
!	!	!	!	!	!	!LO:LB:g=original	!
=49	=49	=49	=49	=49	=49	=49	=49
2A-X\	no-	1.c	nos-	2f\	no-	2cc\	no-
2G\	.	.	.	2e\	.	2b-\	.
2F\	.	.	.	2f\	.	2a-X\	.
=50	=50	=50	=50	=50	=50	=50	=50
.	.	.	.	.	.	8qa/	.
2c\	.	1c	-tram	1e	-stram	2g\	.
2C/	-stram,	.	.	.	.	2f/	-stram
!LO:LB:g=original	!	!	!	!	!	!	!
4r	.	4r	.	4r	.	2r	.
4C/	qui	8c\L	qui	8a\L	qui	.	.
.	.	8B-\J	.	8g\J	.	.	.
!	!	!	!	!LO:LB:g=original	!	!	!
=51	=51	=51	=51	=51	=51	=51	=51
2F\	se-	2An\	se-	2f\	se-	2cc\	qui
2F\	-des	2A\	-des	2f\	-des	2cc\	se-
2E\	ad	2B-\	ad	2g\	ad	4cc\	-des
.	.	.	.	.	.	4cc\	ad
!	!	!LO:LB:g=original	!	!	!	!	!
=52	=52	=52	=52	=52	=52	=52	=52
2.F\	dex-	2.c\	dex-	2.a\	dex-	2.ff\	dex-
4F\	-te-	4d\	-te-	4b-\	-te-	4ff\	-te-
2F\	-ram	2c\	-ram	2a\	-ram	2ff\	-ram
=53	=53	=53	=53	=53	=53	=53	=53
2F\	Pa-	2c\	Pa-	2a\	Pa-	2ff\	pa-
2B-\	.	2B-\	.	2g\	.	1dd	.
2Bn\	.	2A\	.	2f\	.	.	.
=54	=54	=54	=54	=54	=54	=54	=54
1c	-tris	1G	-tris	2e\	-tris	1cc	-tris,
.	.	.	.	2r	.	.	.
2r	.	2r	.	2r	.	2r	.
=55	=55	=55	=55	=55	=55	=55	=55
1C#X	mi-	1e	mi-	1g	mi-	1b-	mi-
2C#/	-se-	2e\	-se-	2g\	-se-	2b-\	-se-
=56	=56	=56	=56	=56	=56	=56	=56
2D\	-re-	2d\	-re-	2a\	-re-	1a	-re-
2A\	.	2c#X\	.	2g\	.	.	.
2D\	-re	2A\	-re	2f\	-re	2dd\	-re
!	!	!	!	!	!	!LO:LB:g=original	!
=57	=57	=57	=57	=57	=57	=57	=57
2C#X/	mi-	1A	mi-	2e\	mi-	2ee\	mi-
2D/	.	.	.	2f\	.	2dd\	.
2E\	-se-	2c#X\	-se-	2g\	-se-	2a\	-se-
=58	=58	=58	=58	=58	=58	=58	=58
2D\	-re-	2A\	-re-	2f\	-re-	2dd\	-re-
2E\	.	2c#X\	.	2g\	.	2a\	.
2F\	-re	2d\	-re	2a\	-re	2a\	-re
!LO:LB:g=original	!	!	!	!	!	!	!
=59	=59	=59	=59	=59	=59	=59	=59
2G\	no-	2e\	no-	2b-\	no-	2cc#X\	no-
2A\	.	2f\	.	2a\	.	2dd\	.
2AA/	.	2e\	.	2g\	.	2a\	.
!	!	!	!	!LO:LB:g=original	!	!	!
=60	=60	=60	=60	=60	=60	=60	=60
1D	-bis.	1.d	-bis,	1f	-bis,	1.a	-bis
2r	.	.	.	2ryy	.	.	.
!	!	!LO:LB:g=original	!	!	!	!	!
=61||	=61||	=61||	=61||	=61||	=61||	=61||	=61||
*M2/2	*	*M2/2	*	*M2/2	*	*M2/2	*
*met(C.|)	*	*met(C.|)	*	*met(C.|)	*	*met(C.|)	*
4.F\	Quo-	4.A\	Quo-	4.f\	Quo-	4.cc\	Quo-
8E\	-ni-	8B-\	-ni-	8g\	-ni-	8b-\	-ni-
4F\	-am	4c\	-am	4a\	-am	4a\	-am
4F\	tu	4c\	tu	4a\	tu	4a\	tu
=62	=62	=62	=62	=62	=62	=62	=62
4F\	so-	8c\L	so-	8a\L	so-	2cc\	so-
.	.	8B-\	.	8g\	.	.	.
4C/	.	8B-\	.	8g\	.	.	.
.	.	8A\J	.	8f\J	.	.	.
4F\	-lus,	4A\	-lus,	4f\	-lus	4cc\	-lus
4F\	tu	4c\	tu	4a\	tu	4r	.
=63	=63	=63	=63	=63	=63	=63	=63
!	!	!	!	!	!	!LO:TX:a:t=1.	!
2F\	so-	4c\	so-	4a\	so-	1r	.
.	.	8d\L	.	8b-\L	.	.	.
.	.	8c\J	.	8a\J	.	.	.
4E\	.	8c\L	.	8a\L	.	.	.
.	.	8B-\	.	8g\J	.	.	.
4F\	-lus	8B-\	-lus	8g\L	-lus	.	.
.	.	8A\J	.	8f\J	.	.	.
!	!	!	!	!	!	!LO:LB:g=original	!
=64	=64	=64	=64	=64	=64	=64	=64
4c\	san-	4A/	san-	4f\	san-	4cc\	san-
4C/	-ctus	4G/	-ctus,	4e\	-ctus,	4cc\	-ctus,
2r	.	4r	.	4r	.	2r	.
.	.	8G/L	tu	8e\L	tu	.	.
.	.	8A/J	.	8f\J	.	.	.
=65	=65	=65	=65	=65	=65	=65	=65
2r	.	8B-\L	so-	8g\L	so-	2r	.
.	.	8A\J	.	8f\J	.	.	.
.	.	8G\L	-lus	8e\L	-lus	.	.
.	.	8A\J	.	8f\J	.	.	.
4r	.	8B-\L	Do-	8a\L	Do-	4r	.
.	.	8A\J	.	8g\J	.	.	.
4C/	tu	8B-\L	-mi-	8a\L	-mi-	4g\	tu
.	.	8G\J	.	8f\J	.	.	.
!	!	!	!	!LO:LB:g=original	!	!	!
=66	=66	=66	=66	=66	=66	=66	=66
8F\L	so-	2A\	-nus	2f\	-nus,	8a\L	so-
8E\	.	.	.	.	.	8g\	.
8F\	.	.	.	.	.	8a\	.
8E\J	.	.	.	.	.	8g\J	.
!LO:LB:g=original	!	!	!	!	!	!	!
8F\L	-lus	4r	.	4r	.	8a\L	-lus
8A\J	.	.	.	.	.	8cc\J	.
8G\L	al-	4c\	al-	8e\L	al-	8b-\L	al-
8F\J	.	.	.	8f\J	.	8a\J	.
!	!	!LO:LB:g=original	!	!	!	!	!
=67	=67	=67	=67	=67	=67	=67	=67
4.E\	-tis-	4.c\	-tis-	4.g\	-tis-	4.g\	-ti-
8D\	-si-	8c\	-si-	8f\	-si-	8g\	-si-
2C/	-mus	2c\	-mus	2e\	-mus	2b-\	-mus
=68	=68	=68	=68	=68	=68	=68	=68
4F\	Je-	8A\L	Je-	8f\L	Je-	4cc\	Je-
.	.	8c\J	.	8a\J	.	.	.
4B-\	-su	8d\L	-su	8b-\L	-su	4dd\	-su
.	.	8B-\J	.	8g\J	.	.	.
4c\	Chri-	4A/	Chri-	4f\	Chri-	2cc\	Chri-
4C/	.	4G/	.	4e\	.	.	.
=69	=69	=69	=69	=69	=69	=69	=69
2F\	-ste,	2A/	-ste,	2f\	-ste,	2cc\	-ste
4r	.	4r	.	4r	.	4r	.
4C/	cum	4G/	Cum	4e\	Cum	4cc\	cum
!	!	!	!	!	!	!LO:LB:g=original	!
=70	=70	=70	=70	=70	=70	=70	=70
4F\	san-	4A\	san-	4f\	san-	2.cc\	san-
4G\	.	4B-\	.	4e\	.	.	.
8B-\L	.	8d\L	.	4f\	.	.	.
8A\	.	8c\J	.	.	.	.	.
8G\	.	8B-\L	-cto	4f\	-cto	4cc\	-cto
8F\J	-cto	8A\J	.	.	.	.	.
=71	=71	=71	=71	=71	=71	=71	=71
4.C/	ſpi-	4.G/	ſpi-	4.e\	ſpi-	4.cc\	spi-
8C/	-ri-	8G/	-ri-	8e\	-ri-	8cc\	-ri-
4C/	-tu	4G/	-tu	4e\	-tu	4cc\	-tu
4C/	in	4G/	in	4e\	in	4cc\	in
=72	=72	=72	=72	=72	=72	=72	=72
4C\	glo-	4G/	glo-	4e\	glo-	4cc\	glo-
8E\	-ri-	8G/	-ri-	8e\	-ri-	8cc\	-ri-
8G\	-a	8G/	-a	8e\	-a	8cc\	-a
!LO:LB:g=original	!	!	!	!	!	!	!
8B-\L	De-	4G/	De-	4e\	De-	4cc\	De-
8G\J	.	.	.	.	.	.	.
8E\L	-i	4G/	-i	4e\	-i	4cc\	-i
8C\J	.	.	.	.	.	.	.
!	!	!LO:LB:g=original	!	!LO:LB:g=original	!	!	!
=73	=73	=73	=73	=73	=73	=73	=73
4F\	Pa-	4A\	Pa-	4f\	Pa-	4cc\	Pa-
4F\	-tris	4A\	-tris	4f\	-tris	4cc\	-tris
2r	.	2r	.	2r	.	2r	.
=74	=74	=74	=74	=74	=74	=74	=74
4E\	a-	2B-\	a-	4g\	a-	2cc\	a-
4C\	.	.	.	4e\	.	.	.
2F\	-men	2A\	-men	2f\	-men	2cc\	-men
=75	=75	=75	=75	=75	=75	=75	=75
4B-\	a-	4G/	a-	4f\	a-	2cc\	a-
4G\	.	4B-\	.	4g\	.	.	.
4F\	.	4A\	.	4a\	.	2cc\	-men
4A\	-men	4c\	-men	4f\	.	.	.
!	!	!	!	!	!	!LO:LB:g=original	!
=76	=76	=76	=76	=76	=76	=76	=76
4B-\	a-	2d\	a-	2g\	-men	2b-\	a-
4G\	.	.	.	.	.	.	.
4c\	.	2c\	.	2e\	a-	2g\	.
4C/	.	.	.	.	.	.	.
=77	=77	=77	=77	=77	=77	=77	=77
2.F\	-men.	1c	-men.	2f\	-men.	1a	-men.
.	.	.	.	2r	.	.	.
4r	.	.	.	.	.	.	.
==	==	==	==	==	==	==	==
*-	*-	*-	*-	*-	*-	*-	*-
!!!system-decoration: [(s1,s2,s3,s4)]
!!!ENC: Andrzej Gręziak
!!!END: 2023-11-06
!!!EED: Jan Barakat
!!!EEV: 2023-11-28
